images/analysis.svg

<svg fill="none" height="112" viewBox="0 0 449 112" width="449" xmlns="http://www.w3.org/2000/svg"><path d="m24.4799 88.8667c-3.8163 0-7.4252-.3734-10.8267-1.12-3.3185-.6637-6.26363-1.7837-8.83547-3.36-2.48888-1.6593-4.438505-3.8578-5.84887-6.5956-1.41036-2.8207-2.11555-6.3051-2.11555-10.4532 0-3.8993.78815-7.3008 2.364438-10.2044 1.659253-2.9037 4.148132-5.1437 7.466632-6.72 3.31852-1.5763 7.50812-2.3645 12.56882-2.3645 2.8208 0 5.5585.2904 8.2133.8712 2.6548.5807 5.0193 1.3688 7.0933 2.3644 2.1571.9955 3.8578 2.0741 5.1022 3.2355l.7467 8.96c-1.6593-.9956-3.6504-1.7837-5.9733-2.3644-2.323-.5808-4.8118-.8711-7.4667-.8711-4.0651 0-7.0518.6222-8.9599 1.8666-1.8252 1.1615-2.7378 3.0281-2.7378 5.6 0 1.5763.4563 2.9866 1.3689 4.2311.9126 1.2444 2.1155 2.1985 3.6089 2.8622 1.5763.6637 3.194.9955 4.8533.9955 4.2311 0 7.1763-.2903 8.8355-.8711 1.7422-.5807 2.6133-1.7422 2.6133-3.4844v-23.1466c0-3.8162-1.2444-6.554-3.7333-8.2133-2.4059-1.7422-5.8489-2.6133-10.3288-2.6133-3.6504 0-7.3422.6637-11.0755 1.9911-3.6504 1.2445-6.63706 2.7793-8.96001 4.6044v-16.4266c2.15703-1.3274 5.47553-2.5718 9.95551-3.7333 4.563-1.1615 9.6652-1.7422 15.3066-1.7422 1.9911 0 4.1896.1659 6.5955.4978 2.406.3318 4.8119.9541 7.2178 1.8666 2.4059.8297 4.6044 2.0741 6.5955 3.7334 2.0741 1.6592 3.7333 3.7748 4.9778 6.3466 1.2444 2.5718 1.8666 5.7659 1.8666 9.5822l-.1244 29.7421c0 3.5674-1.203 6.4711-3.6089 8.7111-2.4059 2.157-5.8903 3.7333-10.4533 4.7288-4.48.9956-9.914 1.4934-16.3021 1.4934zm44.4595-59.4842c1.5763-.8297 3.6504-1.6593 6.2222-2.4889 2.5718-.9126 5.3926-1.7008 8.4622-2.3645s6.1392-1.2029 9.2088-1.6177c3.1526-.4148 6.0563-.6222 8.7114-.6222 5.641 0 10.453.7466 14.435 2.2399 3.982 1.4104 7.011 3.7334 9.085 6.9689 2.157 3.2355 3.235 7.6326 3.235 13.1911v42.3109h-18.542v-38.5776c0-1.5763-.249-3.0282-.747-4.3556-.414-1.3274-1.078-2.4474-1.991-3.3599-.912-.9956-2.157-1.7423-3.733-2.24-1.576-.5808-3.4845-.8711-5.7245-.8711-1.9081 0-3.8163.2488-5.7244.7466-1.9082.4148-3.36.8711-4.3555 1.3689v47.2887h-18.5422zm97.6106 59.4842c-3.816 0-7.425-.3734-10.827-1.12-3.318-.6637-6.263-1.7837-8.835-3.36-2.489-1.6593-4.439-3.8578-5.849-6.5956-1.41-2.8207-2.115-6.3051-2.115-10.4532 0-3.8993.788-7.3008 2.364-10.2044 1.659-2.9037 4.148-5.1437 7.467-6.72 3.318-1.5763 7.508-2.3645 12.568-2.3645 2.821 0 5.559.2904 8.214.8712 2.655.5807 5.019 1.3688 7.093 2.3644 2.157.9955 3.858 2.0741 5.102 3.2355l.747 8.96c-1.659-.9956-3.65-1.7837-5.973-2.3644-2.323-.5808-4.812-.8711-7.467-.8711-4.065 0-7.052.6222-8.96 1.8666-1.825 1.1615-2.738 3.0281-2.738 5.6 0 1.5763.457 2.9866 1.369 4.2311.913 1.2444 2.116 2.1985 3.609 2.8622 1.576.6637 3.194.9955 4.853.9955 4.231 0 7.177-.2903 8.836-.8711 1.742-.5807 2.613-1.7422 2.613-3.4844v-23.1466c0-3.8162-1.244-6.554-3.733-8.2133-2.406-1.7422-5.849-2.6133-10.329-2.6133-3.65 0-7.342.6637-11.075 1.9911-3.651 1.2445-6.638 2.7793-8.96 4.6044v-16.4266c2.157-1.3274 5.475-2.5718 9.955-3.7333 4.563-1.1615 9.665-1.7422 15.307-1.7422 1.991 0 4.189.1659 6.595.4978 2.406.3318 4.812.9541 7.218 1.8666 2.406.8297 4.604 2.0741 6.595 3.7334 2.075 1.6592 3.734 3.7748 4.978 6.3466 1.245 2.5718 1.867 5.7659 1.867 9.5822l-.125 29.7421c0 3.5674-1.203 6.4711-3.608 8.7111-2.406 2.157-5.891 3.7333-10.454 4.7288-4.48.9956-9.914 1.4934-16.302 1.4934zm62.877-1.8667h-18.417v-86.737424h18.417zm27.661 24.391c-2.074 0-4.107-.207-6.098-.622s-3.692-.954-5.102-1.618v-15.0577c1.327.4978 2.572.8296 3.733.9956 1.162.2488 2.365.3733 3.609.3733 2.074 0 3.858-.4978 5.351-1.4933 1.577-.9126 2.862-2.5304 3.858-4.8534.996-2.2399 1.784-5.3096 2.364-9.2088l.374 10.5777-27.005-66.453h21.28l14.311 44.1776h-1.866l14.186-44.1776h19.911l-24.764 63.9642c-2.24 5.8073-4.687 10.4118-7.342 13.8134-2.572 3.401-5.268 5.849-8.089 7.342s-5.724 2.24-8.711 2.24zm73.218-22.5243c-4.48 0-8.338-.4978-11.574-1.4934-3.152-.9126-6.139-1.9496-8.96-3.1111v-16.3021c1.743 1.1615 3.692 2.3644 5.849 3.6089 2.157 1.1614 4.522 2.1155 7.094 2.8622 2.654.7466 5.434 1.12 8.337 1.12 2.987 0 5.061-.4978 6.223-1.4934 1.244-1.0785 1.866-2.3644 1.866-3.8577 0-1.4104-.622-2.5304-1.866-3.36-1.245-.9126-2.863-1.6593-4.854-2.24s-4.106-1.12-6.346-1.6178c-1.992-.4148-3.983-1.037-5.974-1.8666-1.991-.9126-3.775-2.1156-5.351-3.6089s-2.862-3.3185-3.858-5.4755c-.912-2.24-1.368-4.9363-1.368-8.0889 0-4.0652.788-7.4252 2.364-10.08 1.576-2.7377 3.65-4.9362 6.222-6.5955 2.572-1.6592 5.351-2.8207 8.338-3.4844 2.987-.7467 5.89-1.0785 8.711-.9956 5.144.166 9.209.7467 12.195 1.7422 3.07.9126 5.849 2.1156 8.338 3.6089v14.56c-2.82-1.5763-5.641-3.0282-8.462-4.3556-2.738-1.4103-5.89-2.1155-9.458-2.1155-3.235 0-5.558.4977-6.969 1.4933-1.41.9956-2.115 2.323-2.115 3.9822 0 1.5763.456 2.8207 1.369 3.7333.995.9126 2.281 1.6593 3.858 2.24 1.576.4978 3.318.9956 5.226 1.4933 2.074.4978 4.19 1.12 6.347 1.8667 2.24.6637 4.314 1.6593 6.222 2.9867 1.991 1.2444 3.567 3.0281 4.729 5.351 1.244 2.24 1.867 5.2267 1.867 8.96-.083 5.0607-1.452 9.1259-4.107 12.1955-2.655 2.9867-6.098 5.1437-10.329 6.4711-4.148 1.2444-8.67 1.8667-13.564 1.8667zm39.252-1.8667v-62.0975h18.542l.125 62.0975zm-.373-71.5553v-14.31102h19.164v14.31102zm51.785 73.422c-4.48 0-8.338-.4978-11.573-1.4934-3.153-.9126-6.14-1.9496-8.96-3.1111v-16.3021c1.742 1.1615 3.691 2.3644 5.849 3.6089 2.157 1.1614 4.521 2.1155 7.093 2.8622 2.655.7466 5.434 1.12 8.338 1.12 2.986 0 5.06-.4978 6.222-1.4934 1.244-1.0785 1.866-2.3644 1.866-3.8577 0-1.4104-.622-2.5304-1.866-3.36-1.245-.9126-2.862-1.6593-4.854-2.24-1.991-.5807-4.106-1.12-6.346-1.6178-1.991-.4148-3.982-1.037-5.974-1.8666-1.991-.9126-3.774-2.1156-5.351-3.6089-1.576-1.4933-2.862-3.3185-3.857-5.4755-.913-2.24-1.369-4.9363-1.369-8.0889 0-4.0652.788-7.4252 2.364-10.08 1.576-2.7377 3.651-4.9362 6.222-6.5955 2.572-1.6592 5.351-2.8207 8.338-3.4844 2.987-.7467 5.89-1.0785 8.711-.9956 5.144.166 9.209.7467 12.196 1.7422 3.069.9126 5.849 2.1156 8.337 3.6089v14.56c-2.82-1.5763-5.641-3.0282-8.462-4.3556-2.738-1.4103-5.89-2.1155-9.457-2.1155-3.236 0-5.559.4977-6.969 1.4933-1.411.9956-2.116 2.323-2.116 3.9822 0 1.5763.456 2.8207 1.369 3.7333.996.9126 2.281 1.6593 3.858 2.24 1.576.4978 3.318.9956 5.226 1.4933 2.074.4978 4.19 1.12 6.347 1.8667 2.24.6637 4.314 1.6593 6.222 2.9867 1.991 1.2444 3.568 3.0281 4.729 5.351 1.245 2.24 1.867 5.2267 1.867 8.96-.083 5.0607-1.452 9.1259-4.107 12.1955-2.655 2.9867-6.098 5.1437-10.329 6.4711-4.148 1.2444-8.669 1.8667-13.564 1.8667z" fill="#000" opacity=".04"/></svg>

<svg width="449" height="112" viewBox="0 0 449 112" fill="none" xmlns="http://www.w3.org/2000/svg">
<path opacity="0.04" d="M24.4799 88.8667C20.6636 88.8667 17.0547 88.4933 13.6532 87.7467C10.3347 87.083 7.38957 85.963 4.81773 84.3867C2.32885 82.7274 0.379225 80.5289 -1.03114 77.7911C-2.4415 74.9704 -3.14669 71.486 -3.14669 67.3379C-3.14669 63.4386 -2.35854 60.0371 -0.782252 57.1335C0.877001 54.2298 3.36588 51.9898 6.68438 50.4135C10.0029 48.8372 14.1925 48.049 19.2532 48.049C22.074 48.049 24.8117 48.3394 27.4665 48.9202C30.1213 49.5009 32.4858 50.289 34.5598 51.2846C36.7169 52.2801 38.4176 53.3587 39.662 54.5201L40.4087 63.4801C38.7494 62.4845 36.7583 61.6964 34.4354 61.1157C32.1124 60.5349 29.6236 60.2446 26.9687 60.2446C22.9036 60.2446 19.9169 60.8668 18.0088 62.1112C16.1836 63.2727 15.271 65.1393 15.271 67.7112C15.271 69.2875 15.7273 70.6978 16.6399 71.9423C17.5525 73.1867 18.7554 74.1408 20.2488 74.8045C21.8251 75.4682 23.4428 75.8 25.1021 75.8C29.3332 75.8 32.2784 75.5097 33.9376 74.9289C35.6798 74.3482 36.5509 73.1867 36.5509 71.4445V48.2979C36.5509 44.4817 35.3065 41.7439 32.8176 40.0846C30.4117 38.3424 26.9687 37.4713 22.4888 37.4713C18.8384 37.4713 15.1466 38.135 11.4133 39.4624C7.7629 40.7069 4.77624 42.2417 2.45329 44.0668V27.6402C4.61032 26.3128 7.92882 25.0684 12.4088 23.9069C16.9718 22.7454 22.074 22.1647 27.7154 22.1647C29.7065 22.1647 31.905 22.3306 34.3109 22.6625C36.7169 22.9943 39.1228 23.6166 41.5287 24.5291C43.9346 25.3588 46.1331 26.6032 48.1242 28.2625C50.1983 29.9217 51.8575 32.0373 53.102 34.6091C54.3464 37.1809 54.9686 40.375 54.9686 44.1913L54.8442 73.9334C54.8442 77.5008 53.6412 80.4045 51.2353 82.6445C48.8294 84.8015 45.345 86.3778 40.782 87.3733C36.302 88.3689 30.868 88.8667 24.4799 88.8667ZM68.9394 29.3825C70.5157 28.5528 72.5898 27.7232 75.1616 26.8936C77.7334 25.981 80.5542 25.1928 83.6238 24.5291C86.6934 23.8654 89.763 23.3262 92.8326 22.9114C95.9852 22.4966 98.8889 22.2892 101.544 22.2892C107.185 22.2892 111.997 23.0358 115.979 24.5291C119.961 25.9395 122.99 28.2625 125.064 31.498C127.221 34.7335 128.299 39.1306 128.299 44.6891V87H109.757V48.4224C109.757 46.8461 109.508 45.3942 109.01 44.0668C108.596 42.7394 107.932 41.6194 107.019 40.7069C106.107 39.7113 104.862 38.9646 103.286 38.4669C101.71 37.8861 99.8015 37.5958 97.5615 37.5958C95.6534 37.5958 93.7452 37.8446 91.8371 38.3424C89.9289 38.7572 88.4771 39.2135 87.4816 39.7113V87H68.9394V29.3825ZM166.55 88.8667C162.734 88.8667 159.125 88.4933 155.723 87.7467C152.405 87.083 149.46 85.963 146.888 84.3867C144.399 82.7274 142.449 80.5289 141.039 77.7911C139.629 74.9704 138.924 71.486 138.924 67.3379C138.924 63.4386 139.712 60.0371 141.288 57.1335C142.947 54.2298 145.436 51.9898 148.755 50.4135C152.073 48.8372 156.263 48.049 161.323 48.049C164.144 48.049 166.882 48.3394 169.537 48.9202C172.192 49.5009 174.556 50.289 176.63 51.2846C178.787 52.2801 180.488 53.3587 181.732 54.5201L182.479 63.4801C180.82 62.4845 178.829 61.6964 176.506 61.1157C174.183 60.5349 171.694 60.2446 169.039 60.2446C164.974 60.2446 161.987 60.8668 160.079 62.1112C158.254 63.2727 157.341 65.1393 157.341 67.7112C157.341 69.2875 157.798 70.6978 158.71 71.9423C159.623 73.1867 160.826 74.1408 162.319 74.8045C163.895 75.4682 165.513 75.8 167.172 75.8C171.403 75.8 174.349 75.5097 176.008 74.9289C177.75 74.3482 178.621 73.1867 178.621 71.4445V48.2979C178.621 44.4817 177.377 41.7439 174.888 40.0846C172.482 38.3424 169.039 37.4713 164.559 37.4713C160.909 37.4713 157.217 38.135 153.484 39.4624C149.833 40.7069 146.846 42.2417 144.524 44.0668V27.6402C146.681 26.3128 149.999 25.0684 154.479 23.9069C159.042 22.7454 164.144 22.1647 169.786 22.1647C171.777 22.1647 173.975 22.3306 176.381 22.6625C178.787 22.9943 181.193 23.6166 183.599 24.5291C186.005 25.3588 188.203 26.6032 190.194 28.2625C192.269 29.9217 193.928 32.0373 195.172 34.6091C196.417 37.1809 197.039 40.375 197.039 44.1913L196.914 73.9334C196.914 77.5008 195.711 80.4045 193.306 82.6445C190.9 84.8015 187.415 86.3778 182.852 87.3733C178.372 88.3689 172.938 88.8667 166.55 88.8667ZM229.427 87H211.01V0.262576H229.427V87ZM257.088 111.391C255.014 111.391 252.981 111.184 250.99 110.769C248.999 110.354 247.298 109.815 245.888 109.151V94.0933C247.215 94.5911 248.46 94.9229 249.621 95.0889C250.783 95.3377 251.986 95.4622 253.23 95.4622C255.304 95.4622 257.088 94.9644 258.581 93.9689C260.158 93.0563 261.443 91.4385 262.439 89.1155C263.435 86.8756 264.223 83.8059 264.803 79.9067L265.177 90.4844L238.172 24.0314H259.452L273.763 68.209H271.897L286.083 24.0314H305.994L281.23 87.9956C278.99 93.8029 276.543 98.4074 273.888 101.809C271.316 105.21 268.62 107.658 265.799 109.151C262.978 110.644 260.075 111.391 257.088 111.391ZM330.306 88.8667C325.826 88.8667 321.968 88.3689 318.732 87.3733C315.58 86.4607 312.593 85.4237 309.772 84.2622V67.9601C311.515 69.1216 313.464 70.3245 315.621 71.569C317.778 72.7304 320.143 73.6845 322.715 74.4312C325.369 75.1778 328.149 75.5512 331.052 75.5512C334.039 75.5512 336.113 75.0534 337.275 74.0578C338.519 72.9793 339.141 71.6934 339.141 70.2001C339.141 68.7897 338.519 67.6697 337.275 66.8401C336.03 65.9275 334.412 65.1808 332.421 64.6001C330.43 64.0194 328.315 63.4801 326.075 62.9823C324.083 62.5675 322.092 61.9453 320.101 61.1157C318.11 60.2031 316.326 59.0001 314.75 57.5068C313.174 56.0135 311.888 54.1883 310.892 52.0313C309.98 49.7913 309.524 47.095 309.524 43.9424C309.524 39.8772 310.312 36.5172 311.888 33.8624C313.464 31.1247 315.538 28.9262 318.11 27.2669C320.682 25.6077 323.461 24.4462 326.448 23.7825C329.435 23.0358 332.338 22.704 335.159 22.7869C340.303 22.9529 344.368 23.5336 347.354 24.5291C350.424 25.4417 353.203 26.6447 355.692 28.138V42.698C352.872 41.1217 350.051 39.6698 347.23 38.3424C344.492 36.9321 341.34 36.2269 337.772 36.2269C334.537 36.2269 332.214 36.7246 330.803 37.7202C329.393 38.7158 328.688 40.0432 328.688 41.7024C328.688 43.2787 329.144 44.5231 330.057 45.4357C331.052 46.3483 332.338 47.095 333.915 47.6757C335.491 48.1735 337.233 48.6713 339.141 49.169C341.215 49.6668 343.331 50.289 345.488 51.0357C347.728 51.6994 349.802 52.695 351.71 54.0224C353.701 55.2668 355.277 57.0505 356.439 59.3734C357.683 61.6134 358.306 64.6001 358.306 68.3334C358.223 73.3941 356.854 77.4593 354.199 80.5289C351.544 83.5156 348.101 85.6726 343.87 87C339.722 88.2444 335.2 88.8667 330.306 88.8667ZM369.558 87V24.9025H388.1L388.225 87H369.558ZM369.185 15.4447V1.13368H388.349V15.4447H369.185ZM420.97 88.8667C416.49 88.8667 412.632 88.3689 409.397 87.3733C406.244 86.4607 403.257 85.4237 400.437 84.2622V67.9601C402.179 69.1216 404.128 70.3245 406.286 71.569C408.443 72.7304 410.807 73.6845 413.379 74.4312C416.034 75.1778 418.813 75.5512 421.717 75.5512C424.703 75.5512 426.777 75.0534 427.939 74.0578C429.183 72.9793 429.805 71.6934 429.805 70.2001C429.805 68.7897 429.183 67.6697 427.939 66.8401C426.694 65.9275 425.077 65.1808 423.085 64.6001C421.094 64.0194 418.979 63.4801 416.739 62.9823C414.748 62.5675 412.757 61.9453 410.765 61.1157C408.774 60.2031 406.991 59.0001 405.414 57.5068C403.838 56.0135 402.552 54.1883 401.557 52.0313C400.644 49.7913 400.188 47.095 400.188 43.9424C400.188 39.8772 400.976 36.5172 402.552 33.8624C404.128 31.1247 406.203 28.9262 408.774 27.2669C411.346 25.6077 414.125 24.4462 417.112 23.7825C420.099 23.0358 423.002 22.704 425.823 22.7869C430.967 22.9529 435.032 23.5336 438.019 24.5291C441.088 25.4417 443.868 26.6447 446.356 28.138V42.698C443.536 41.1217 440.715 39.6698 437.894 38.3424C435.156 36.9321 432.004 36.2269 428.437 36.2269C425.201 36.2269 422.878 36.7246 421.468 37.7202C420.057 38.7158 419.352 40.0432 419.352 41.7024C419.352 43.2787 419.808 44.5231 420.721 45.4357C421.717 46.3483 423.002 47.095 424.579 47.6757C426.155 48.1735 427.897 48.6713 429.805 49.169C431.879 49.6668 433.995 50.289 436.152 51.0357C438.392 51.6994 440.466 52.695 442.374 54.0224C444.365 55.2668 445.942 57.0505 447.103 59.3734C448.348 61.6134 448.97 64.6001 448.97 68.3334C448.887 73.3941 447.518 77.4593 444.863 80.5289C442.208 83.5156 438.765 85.6726 434.534 87C430.386 88.2444 425.865 88.8667 420.97 88.8667Z" fill="black"/>
</svg>
